X: 60
T: LOTHIANS
%R: strathspey
B: Jean White "100 Popular Hornpipes, Reels, Jigs and Country Dances", Boston 1880 p.26
F: http://www.loc.gov/resource/sm1880.09124.0#seq-1
Z: 2014 John Chambers <jc:trillian.mit.edu>
M: C|
L: 1/16
K: D
% - - - - - - - - - - - - - - - - - - - - - - - - - - - - -
A2 |\
F3GA3d B3dA3d | Gd3F3d BE3E3G | F3GA3d Bd3A3d | B3AB3c dD3D2 :|
ag |\
f3ad3a fd3a3d | ce3A3e c3eA2 ag | fa3d3a fd3a3d | B3AB3c dD3D2 ag |
f3ad3a fd3a3d | ce3A3c c3eA2 ag | fd3g3e a3fb3g | f3ae3f dD3D2 H|]
% - - - - - - - - - - - - - - - - - - - - - - - - - - - - -

%%sep 1 1 500
%%sep 1 1 500
